X: 23010
T: Last Inn, The
R: reel
M: 4/4
K: Eminor
|:EB Bc ecA|F2 DF GAB|
EB Bc A2B|1 AF FA B2G:|2 AF FA B2A||
|:B2 ef gag|f2 ef BBA|
B2 ef gaf|1 ec AG ABc:|2 ec AB AGF||
|:EBB ce cA|F2D FG AB|
EBB cA AB|1 AFF AB BG:|2 AFF AB BA||
|:B2e fg ag|f2e fB BA|
B2e fg af|1 ecA GA Bc:|2 ecA BA GF||
|:EB Bce cA|F2 DFG AB|
EB BcA AB|1 AF FAB BG:|2 AF FAB BA||
|:B2 efg ag|f2 efB BA|
B2 efg af|1 ec AGA Bc:|2 ec ABA GF||

